material/.icons/material/gate-and.svg

<svg xmlns="http://www.w3.org/2000/svg" viewBox="0 0 24 24"><path d="M2 4v16h12a8 8 0 008-8 8 8 0 00-8-8H2m2 2h10a6 6 0 016 6 6 6 0 01-6 6H4V6z"/></svg>

<?xml version="1.0" encoding="UTF-8"?><!DOCTYPE svg PUBLIC "-//W3C//DTD SVG 1.1//EN" "http://www.w3.org/Graphics/SVG/1.1/DTD/svg11.dtd"><svg xmlns="http://www.w3.org/2000/svg" xmlns:xlink="http://www.w3.org/1999/xlink" version="1.1" id="mdi-gate-and" width="24" height="24" viewBox="0 0 24 24"><path d="M2,4V20H14A8,8 0 0,0 22,12A8,8 0 0,0 14,4H2M4,6H14A6,6 0 0,1 20,12A6,6 0 0,1 14,18H4V6Z" /></svg>
